X: 30921
T: Over The Moor To Maggie
R: reel
M: 4/4
K: Dmajor
FE|:D3 E FDFA|BcdB AFED|B,E (3EEE EFED|B,E (3EEE EGFE|
D3 E FDFA|BcdB AFED|B,D (3DDD FDED|1 A,DDE D2 FE:|2 A,DDE D2 de||
|:fd (3ddd edBc|cddB A2 FA|Beed efed|Beed e2 de|
fd (3ddd edBc|cddB A2 FA|Bd (3ddd fded|1 Addc d2 de:|2 Addc d2 FA||
ABBG GAAF|FGGE F2 ED|B,E (3EEE EFED|B,E (3EEE EFGA|
ABBG GAAF|FGGE F2 ED|B,D (3DDD FDED|1 A,DDE D2 FA:|2 A,DDE D4||
AB (3BBG GA (3AAF|FG (3GGE F2 ED|B,E (3EEE EFED|B,E (3EEE EFGA||

